lib/flags/fk-falkland-islands.svg

<svg xmlns="http://www.w3.org/2000/svg" fill="none" aria-hidden="true" viewBox="0 0 42 30"><g id="Country=FK - Falkland Islands, Size=sm (36x24)" filter="url(#filter0_dd_91_28288)"><g clip-path="url(#clip0_91_28288)"><g id="flag"><mask id="mask0_91_28288" width="36" height="24" x="3" y="2" maskUnits="userSpaceOnUse" style="mask-type:alpha"><rect id="mask" width="36" height="24" x="3" y="2" fill="white"/></mask><g mask="url(#mask0_91_28288)"><g id="contents"><path id="background" fill="#2E42A5" fill-rule="evenodd" d="M3 2V26H39V2H3Z" clip-rule="evenodd"/><mask id="mask1_91_28288" width="36" height="24" x="3" y="2" maskUnits="userSpaceOnUse" style="mask-type:alpha"><path id="background_2" fill="white" fill-rule="evenodd" d="M3 2V26H39V2H3Z" clip-rule="evenodd"/></mask><g mask="url(#mask1_91_28288)"><g id="masked"><path id="Path 2" fill="#6DC2FF" stroke="#F7FCFF" stroke-width="0.5" d="M32.194 21.714C31.0257 21.714 30.2081 21.4683 29.6267 21.039C29.0467 20.6106 28.6709 19.9765 28.431 19.1372C28.19 18.2943 28.0911 17.2619 28.0542 16.0603C28.0283 15.2158 28.0331 14.2996 28.0382 13.3165C28.04 12.9797 28.0418 12.635 28.0424 12.2827H36.4478C36.5969 14.6911 36.6499 17.0332 36.1211 18.7884C35.8499 19.6882 35.4312 20.4142 34.8109 20.9162C34.1931 21.4162 33.3509 21.714 32.194 21.714Z"/><mask id="mask2_91_28288" width="10" height="10" x="27" y="12" maskUnits="userSpaceOnUse" style="mask-type:alpha"><path id="Path 2_2" fill="white" stroke="white" stroke-width="0.5" d="M32.194 21.714C31.0257 21.714 30.2081 21.4683 29.6267 21.039C29.0467 20.6106 28.6709 19.9765 28.431 19.1372C28.19 18.2943 28.0911 17.2619 28.0542 16.0603C28.0283 15.2158 28.0331 14.2996 28.0382 13.3165C28.04 12.9797 28.0418 12.635 28.0424 12.2827H36.4478C36.5969 14.6911 36.6499 17.0332 36.1211 18.7884C35.8499 19.6882 35.4312 20.4142 34.8109 20.9162C34.1931 21.4162 33.3509 21.714 32.194 21.714Z"/></mask><g mask="url(#mask2_91_28288)"><g id="mark"><path id="sheep" fill="#E1E5E8" fill-rule="evenodd" d="M30.5871 15.5871C30.5871 15.5871 30.1431 15.2952 29.9527 14.8223C29.7623 14.3494 29.3856 13.0904 29.3856 12.9811C29.3856 12.8718 28.8843 12.9811 28.8843 12.9811C28.8843 12.9811 28.8913 12.4487 29.0804 12.4487C29.2696 12.4487 29.2767 11.9551 29.7357 12.0794C30.1947 12.2037 30.5556 12.6596 31.0234 12.6596C31.4911 12.6596 33.4463 12.7922 33.7606 12.7922C34.0749 12.7922 34.9034 13.3818 34.9034 13.8232C34.9034 14.2646 34.6775 14.9222 34.4997 14.9222C34.322 14.9222 34.0984 15.3048 33.7606 15.1785C33.4228 15.0522 32.6163 14.7921 31.8938 14.9222C31.1714 15.0522 31.0234 14.9705 31.0234 15.1785C31.0234 15.3865 30.5871 15.5871 30.5871 15.5871Z" clip-rule="evenodd"/><path id="grass" fill="#49801E" fill-rule="evenodd" d="M29.5503 15.2788H35.3503L34.3513 16.4263H30.2532L29.5503 15.2788Z" clip-rule="evenodd"/><path id="Path 45" stroke="white" stroke-width="1.06667" d="M29.4746 20.2958C29.4746 20.2958 30.477 20.6145 30.8959 20.5757C31.3599 20.5328 31.7706 20.0627 32.0807 20.0627C32.3902 20.0627 32.9861 20.533 33.4489 20.5757C33.8685 20.6145 34.6868 20.2958 34.6868 20.2958"/><path id="Path 45_2" stroke="white" stroke-width="1.06667" d="M28.3735 18.9363C28.7202 18.6754 29.4744 18.6564 29.4744 18.6564C29.4744 18.6564 30.4768 18.9751 30.8957 18.9363C31.3597 18.8934 31.7704 18.4233 32.0805 18.4233C32.39 18.4233 32.9859 18.8936 33.4487 18.9363C33.8683 18.9751 34.6866 18.6564 34.6866 18.6564C34.6866 18.6564 35.1439 18.1993 35.7181 18.6819"/><path id="Path 45_3" fill="white" d="M28.2684 17.5298L27.5098 16.7033C27.8072 16.4876 28.3067 16.2749 29.0358 16.0399L29.3897 16.0248C30.1456 16.1974 30.651 16.2723 30.8361 16.2558C30.8972 16.2503 30.9992 16.2063 31.1856 16.0963C31.715 15.7842 31.7664 15.7588 32.0807 15.7588C32.3679 15.7588 32.4272 15.7833 33.0276 16.0715C33.1391 16.1246 33.1809 16.1439 33.2413 16.1697C33.368 16.2238 33.4589 16.2513 33.5087 16.2558C33.6529 16.2686 33.9432 16.2088 34.3494 16.0635C34.8776 15.6367 35.5468 15.6809 36.1224 16.1471C36.5064 16.458 36.8146 16.7093 37.0473 16.9009L36.2317 17.6833C36.0018 17.494 35.696 17.2447 35.3143 16.9356C35.1625 16.8127 35.1951 16.8134 35.1277 16.8784L34.9201 17.008C34.2899 17.2446 33.7922 17.353 33.3891 17.3171C33.1727 17.2979 32.9635 17.2344 32.7219 17.1313C32.6411 17.0968 32.5833 17.0701 32.4574 17.0101C32.1676 16.8709 32.0575 16.8255 32.0807 16.8255C32.1312 16.8255 32.0611 16.8601 31.8489 16.9852C31.5075 17.1865 31.27 17.2891 30.9558 17.3171C30.6083 17.3481 30.0665 17.2736 29.274 17.0989C28.7592 17.272 28.4172 17.4219 28.2684 17.5298Z"/></g></g></g><g id="bottom"><path id="Path 43" stroke="#B85F3C" d="M28.8335 20.3938C28.8335 20.3938 29.9404 21.3363 29.272 21.9748C28.6036 22.6134 27.9907 22.2425 27.9907 22.2425"/><path id="Path 43_2" stroke="#B85F3C" d="M35.6812 20.3938C35.6812 20.3938 34.5742 21.3363 35.2426 21.9748C35.911 22.6134 36.5239 22.2425 36.5239 22.2425"/><path id="Path 44" stroke="#CB8B73" d="M28.1108 21.1533C28.1108 21.1533 30.0179 22.7733 32.3624 22.7733C34.7069 22.7733 36.5934 21.5357 36.5934 21.5357"/></g><g id="gb - large"><g id="flag_2"><rect id="mask_2" width="20.25" height="14" x="3" y="2" fill="#2B409A"/><mask id="mask3_91_28288" width="21" height="14" x="3" y="2" maskUnits="userSpaceOnUse" style="mask-type:alpha"><rect id="mask_3" width="20.25" height="14" x="3" y="2" fill="white"/></mask><g mask="url(#mask3_91_28288)"><g id="contents_2"><g id="stripe"><path id="white" fill="#F7FCFF" d="M0.745117 14.9999L5.20119 16.7371L23.351 3.88878L25.7015 1.30725L20.9364 0.726627L13.5335 6.26332L7.57493 9.99375L0.745117 14.9999Z"/><path id="red" fill="#F50100" d="M1.35498 16.217L3.62514 17.2251L24.8573 1.06738H21.6697L1.35498 16.217Z"/></g><g id="stripe_2"><path id="white_2" fill="#F7FCFF" d="M25.5049 14.9999L21.0488 16.7371L2.89897 3.88878L0.548492 1.30725L5.31362 0.726627L12.7165 6.26332L18.6751 9.99375L25.5049 14.9999Z"/><path id="red_2" fill="#F50100" d="M25.353 15.8732L23.0829 16.8813L14.042 9.96339L11.3616 9.19046L0.322518 1.31593H3.51009L14.5429 9.00356L17.4735 9.93038L25.353 15.8732Z"/></g><g id="cross"><g id="red_3"><mask id="path-21-outside-1_91_28288" width="24" height="18" x="1" y="0" fill="black" maskUnits="userSpaceOnUse"><rect width="24" height="18" x="1" fill="white"/><path fill-rule="evenodd" d="M14.2326 2H11.9826V8H3V10H11.9826V16H14.2326V10H23.25V8H14.2326V2Z" clip-rule="evenodd"/></mask><path fill="#F50100" fill-rule="evenodd" d="M14.2326 2H11.9826V8H3V10H11.9826V16H14.2326V10H23.25V8H14.2326V2Z" clip-rule="evenodd"/><path fill="#F7FCFF" d="M11.9826 2V0.5H10.4826V2H11.9826ZM14.2326 2H15.7326V0.5H14.2326V2ZM11.9826 8V9.5H13.4826V8H11.9826ZM3 8V6.5H1.5V8H3ZM3 10H1.5V11.5H3V10ZM11.9826 10H13.4826V8.5H11.9826V10ZM11.9826 16H10.4826V17.5H11.9826V16ZM14.2326 16V17.5H15.7326V16H14.2326ZM14.2326 10V8.5H12.7326V10H14.2326ZM23.25 10V11.5H24.75V10H23.25ZM23.25 8H24.75V6.5H23.25V8ZM14.2326 8H12.7326V9.5H14.2326V8ZM11.9826 3.5H14.2326V0.5H11.9826V3.5ZM13.4826 8V2H10.4826V8H13.4826ZM3 9.5H11.9826V6.5H3V9.5ZM4.5 10V8H1.5V10H4.5ZM11.9826 8.5H3V11.5H11.9826V8.5ZM13.4826 16V10H10.4826V16H13.4826ZM14.2326 14.5H11.9826V17.5H14.2326V14.5ZM12.7326 10V16H15.7326V10H12.7326ZM23.25 8.5H14.2326V11.5H23.25V8.5ZM21.75 8V10H24.75V8H21.75ZM14.2326 9.5H23.25V6.5H14.2326V9.5ZM12.7326 2V8H15.7326V2H12.7326Z" mask="url(#path-21-outside-1_91_28288)"/></g></g></g></g></g></g></g></g></g></g></g></g><defs><filter id="filter0_dd_91_28288" width="42" height="30" x="0" y="0" color-interpolation-filters="sRGB" filterUnits="userSpaceOnUse"><feFlood flood-opacity="0" result="BackgroundImageFix"/><feColorMatrix in="SourceAlpha" result="hardAlpha" values="0 0 0 0 0 0 0 0 0 0 0 0 0 0 0 0 0 0 127 0"/><feOffset dy="1"/><feGaussianBlur stdDeviation="1"/><feColorMatrix values="0 0 0 0 0.0627451 0 0 0 0 0.0941176 0 0 0 0 0.156863 0 0 0 0.06 0"/><feBlend in2="BackgroundImageFix" result="effect1_dropShadow_91_28288"/><feColorMatrix in="SourceAlpha" result="hardAlpha" values="0 0 0 0 0 0 0 0 0 0 0 0 0 0 0 0 0 0 127 0"/><feOffset dy="1"/><feGaussianBlur stdDeviation="1.5"/><feColorMatrix values="0 0 0 0 0.0627451 0 0 0 0 0.0941176 0 0 0 0 0.156863 0 0 0 0.1 0"/><feBlend in2="effect1_dropShadow_91_28288" result="effect2_dropShadow_91_28288"/><feBlend in="SourceGraphic" in2="effect2_dropShadow_91_28288" result="shape"/></filter><clipPath id="clip0_91_28288"><rect width="36" height="24" x="3" y="2" fill="white" rx="2"/></clipPath></defs></svg>

<svg xmlns="http://www.w3.org/2000/svg" fill="none" aria-hidden="true" viewBox="0 0 42 30"><g filter="url(#a)"><g clip-path="url(#b)"><mask id="c" width="36" height="24" x="3" y="2" maskUnits="userSpaceOnUse" style="mask-type:alpha"><path fill="#fff" d="M3 2h36v24H3z"/></mask><g mask="url(#c)"><path fill="#2E42A5" fill-rule="evenodd" d="M3 2v24h36V2H3Z" clip-rule="evenodd"/><mask id="d" width="36" height="24" x="3" y="2" maskUnits="userSpaceOnUse" style="mask-type:alpha"><path fill="#fff" fill-rule="evenodd" d="M3 2v24h36V2H3Z" clip-rule="evenodd"/></mask><g mask="url(#d)"><path fill="#6DC2FF" stroke="#F7FCFF" stroke-width=".5" d="M32.194 21.714c-1.168 0-1.986-.246-2.567-.675-.58-.428-.956-1.063-1.196-1.902-.241-.843-.34-1.875-.377-3.077-.026-.844-.02-1.76-.016-2.743.002-.337.004-.682.004-1.034h8.406c.149 2.408.202 4.75-.327 6.505-.271.9-.69 1.626-1.31 2.128-.618.5-1.46.798-2.617.798Z"/><mask id="e" width="10" height="10" x="27" y="12" maskUnits="userSpaceOnUse" style="mask-type:alpha"><path fill="#fff" stroke="#fff" stroke-width=".5" d="M32.194 21.714c-1.168 0-1.986-.246-2.567-.675-.58-.428-.956-1.063-1.196-1.902-.241-.843-.34-1.875-.377-3.077-.026-.844-.02-1.76-.016-2.743.002-.337.004-.682.004-1.034h8.406c.149 2.408.202 4.75-.327 6.505-.271.9-.69 1.626-1.31 2.128-.618.5-1.46.798-2.617.798Z"/></mask><g mask="url(#e)"><path fill="#E1E5E8" fill-rule="evenodd" d="M30.587 15.587s-.444-.292-.634-.765c-.19-.473-.567-1.732-.567-1.84 0-.11-.502 0-.502 0s.007-.533.196-.533c.19 0 .197-.494.656-.37.459.125.82.58 1.287.58.468 0 2.423.133 2.738.133.314 0 1.142.59 1.142 1.031 0 .442-.225 1.1-.403 1.1-.178 0-.402.382-.74.255-.337-.126-1.144-.386-1.866-.256-.723.13-.87.048-.87.256 0 .208-.437.41-.437.41Z" clip-rule="evenodd"/><path fill="#49801E" fill-rule="evenodd" d="M29.55 15.279h5.8l-.999 1.147h-4.098l-.703-1.147Z" clip-rule="evenodd"/><path stroke="#fff" stroke-width="1.067" d="M29.475 20.296s1.002.319 1.42.28c.465-.043.876-.513 1.186-.513.31 0 .905.47 1.368.513.42.038 1.238-.28 1.238-.28m-6.314-1.36c.347-.26 1.101-.28 1.101-.28s1.003.32 1.422.28c.464-.043.874-.513 1.184-.513.31 0 .906.47 1.369.513.42.04 1.238-.28 1.238-.28s.457-.457 1.031.026"/><path fill="#fff" d="m28.268 17.53-.758-.827c.297-.215.797-.428 1.526-.663l.354-.015c.756.172 1.261.247 1.446.23.061-.005.163-.049.35-.159.529-.312.58-.337.895-.337.287 0 .346.024.947.313.111.053.153.072.213.098.127.054.218.081.268.086.144.013.434-.047.84-.192.529-.427 1.198-.383 1.773.083.384.311.693.562.925.754l-.815.782c-.23-.189-.536-.438-.918-.747-.151-.123-.119-.123-.186-.058l-.208.13c-.63.237-1.128.345-1.53.31a2.167 2.167 0 0 1-.668-.187 6.308 6.308 0 0 1-.265-.12c-.29-.14-.4-.185-.376-.185.05 0-.02.034-.232.16-.341.2-.579.303-.893.331-.348.031-.89-.043-1.682-.218-.515.173-.857.323-1.006.43Z"/></g><path stroke="#B85F3C" d="M28.834 20.394s1.106.942.438 1.58c-.668.64-1.281.268-1.281.268m7.69-1.848s-1.107.942-.438 1.58c.668.64 1.28.268 1.28.268"/><path stroke="#CB8B73" d="M28.11 21.153s1.908 1.62 4.252 1.62c2.345 0 4.231-1.237 4.231-1.237"/><path fill="#2B409A" d="M3 2h20.25v14H3z"/><mask id="f" width="21" height="14" x="3" y="2" maskUnits="userSpaceOnUse" style="mask-type:alpha"><path fill="#fff" d="M3 2h20.25v14H3z"/></mask><g mask="url(#f)"><path fill="#F7FCFF" d="m.745 15 4.456 1.737L23.351 3.89l2.35-2.582-4.765-.58-7.402 5.536-5.96 3.73L.746 15Z"/><path fill="#F50100" d="m1.355 16.217 2.27 1.008L24.857 1.067H21.67L1.355 16.217Z"/><path fill="#F7FCFF" d="m25.505 15-4.456 1.737L2.899 3.89.549 1.307l4.765-.58 7.402 5.536 5.96 3.73L25.504 15Z"/><path fill="#F50100" d="m25.353 15.873-2.27 1.008-9.041-6.918-2.68-.773L.322 1.316H3.51l11.033 7.688 2.93.926 7.88 5.943Z"/><mask id="g" width="24" height="18" x="1" y="0" fill="#000" maskUnits="userSpaceOnUse"><path fill="#fff" d="M1 0h24v18H1z"/><path fill-rule="evenodd" d="M14.233 2h-2.25v6H3v2h8.983v6h2.25v-6h9.017V8h-9.017V2Z" clip-rule="evenodd"/></mask><path fill="#F50100" fill-rule="evenodd" d="M14.233 2h-2.25v6H3v2h8.983v6h2.25v-6h9.017V8h-9.017V2Z" clip-rule="evenodd"/><path fill="#F7FCFF" d="M11.983 2V.5h-1.5V2h1.5Zm2.25 0h1.5V.5h-1.5V2Zm-2.25 6v1.5h1.5V8h-1.5ZM3 8V6.5H1.5V8H3Zm0 2H1.5v1.5H3V10Zm8.983 0h1.5V8.5h-1.5V10Zm0 6h-1.5v1.5h1.5V16Zm2.25 0v1.5h1.5V16h-1.5Zm0-6V8.5h-1.5V10h1.5Zm9.017 0v1.5h1.5V10h-1.5Zm0-2h1.5V6.5h-1.5V8Zm-9.017 0h-1.5v1.5h1.5V8Zm-2.25-4.5h2.25v-3h-2.25v3Zm1.5 4.5V2h-3v6h3ZM3 9.5h8.983v-3H3v3Zm1.5.5V8h-3v2h3Zm7.483-1.5H3v3h8.983v-3Zm1.5 7.5v-6h-3v6h3Zm.75-1.5h-2.25v3h2.25v-3Zm-1.5-4.5v6h3v-6h-3ZM23.25 8.5h-9.017v3h9.017v-3Zm-1.5-.5v2h3V8h-3Zm-7.517 1.5h9.017v-3h-9.017v3Zm-1.5-7.5v6h3V2h-3Z" mask="url(#g)"/></g></g></g></g></g><defs><clipPath id="b"><rect width="36" height="24" x="3" y="2" fill="#fff" rx="2"/></clipPath><filter id="a" width="42" height="30" x="0" y="0" color-interpolation-filters="sRGB" filterUnits="userSpaceOnUse"><feFlood flood-opacity="0" result="BackgroundImageFix"/><feColorMatrix in="SourceAlpha" result="hardAlpha" values="0 0 0 0 0 0 0 0 0 0 0 0 0 0 0 0 0 0 127 0"/><feOffset dy="1"/><feGaussianBlur stdDeviation="1"/><feColorMatrix values="0 0 0 0 0.0627451 0 0 0 0 0.0941176 0 0 0 0 0.156863 0 0 0 0.06 0"/><feBlend in2="BackgroundImageFix" result="effect1_dropShadow_91_28288"/><feColorMatrix in="SourceAlpha" result="hardAlpha" values="0 0 0 0 0 0 0 0 0 0 0 0 0 0 0 0 0 0 127 0"/><feOffset dy="1"/><feGaussianBlur stdDeviation="1.5"/><feColorMatrix values="0 0 0 0 0.0627451 0 0 0 0 0.0941176 0 0 0 0 0.156863 0 0 0 0.1 0"/><feBlend in2="effect1_dropShadow_91_28288" result="effect2_dropShadow_91_28288"/><feBlend in="SourceGraphic" in2="effect2_dropShadow_91_28288" result="shape"/></filter></defs></svg>
